X: 25222
T: Maloney's Wife
R: jig
M: 6/8
K: Dmajor
A3|DFA AFA|AFA AFD|GGG FGA|BGE ~E2D|
DFA AFA|AFA dcA|Bcd edB|AFD DDD|
FAA DFA|DFA AFD|GGG FGA|
BGE ~E2D|FAA AfA|AFA dcA|Bcd edB|AFD DDD|
cd|:eAA AFA|eAA AFD|GGG FGA|BGE Ecd|
[1|eAA AFA|eAA AFD|dcA Bcd|edB AFD|Dcd:|
[2|eAA fAA|eAA dcA|Bcd edB|AFD DDf||
|:gbg faf|gfe def|ggg fga|age eef|
gbg fdf|gfe dcA|Bcd edB|1 AFD DDf:|2 AFD D3||

